X: 5403
T: Buds In Winter
R: waltz
M: 3/4
K: Gmajor
|:g3 g fg|d3 g fg|c3 B AG|A2 d3 e||
dc Bd cB|BA GB AG|GF GA GF|D2 de fd|
g3 g fg|d3 g fg|c3 B AG|A2 d3 e|
dc Bd cB|BA GB AG|GF GA GF|1 G2 de fd:|2 G4 F2||
G3 B FG|E3 F GB|BA AG GF|FE ED D/E/F|
G3 B FG|E3 F GB|BA AG GF|G2 DE F/E/D|
G3 B FG|E3 F GB|BA AG GF|FE ED D/E/F|
G3 B FG|E3 F GB|BA AG GF|G2 de fd||

